X: 323
T: Waynesboro
B: canberra pickers and fiddlers
B: tunes
M:C
L:1/4
R: reel
Q: 1/4=100
K:G
V:1 
z2zG/E/|:"G"D/E/G/A/ B/c/d | e/d/g/d/ e/d/B/G/ |"Am" (A2 A/)B/A/G/ |E/AB/ AG/E/ |
"G" D/E/G/A/ B/d/e/^f/ | "C" g g e/d/B/G/ |"D7" D/^F/G/A/ B/G/A/G/ |"G" [1 E/GG/ G/z/G/E/ :|"G" [2E/GG/ G/z/g/a/ ||
|: "G" bb aa | "G" g/a/g/e/ dB | "Am" a3/a/ a/b/a/g/ | e/ab/ ag/a/ | 
"G" bb aa | "C" g/a/g/e/ d/B/A/G/| "D7" D/^F/G/A/ B/G/A/G/ | "G" [1 E/GG/ G/z/g/a/ :|"G" [2 E/GG/ G/z/c/d/ ||
|:"C" e2 d2 | c/d/c/A/ B/G/A/G/ |"Am" E/AG/ A/B/A/G/ | E/G/A/B/ A/B/c/d/ | "C" ee dd | 
c/d/c/A/ B/G/A/G/| "C"E/^F/G/A/ "D7" B/G/A/G/ |"G" [1 E/GG/ G/z/c/d/ :|"G" [2 E/G^F/ G2 ||
% abcbook-tune_id 63da59343dc06d8b5e2631b8
% abcbook-tune_composer_id 
% abcbook-link-0 https://www.youtube.com/watch?v=zQbQABKiJ_8
% abcbook-boost 0
% abcbook-difficulty 0
% abcbook-tags canberra pickers and fiddlers,old time tunes,© free
% abcbook-tablature 
% abcbook-transpose 
% abcbook-tuning GDAD
% abcbook-lastupdated 1738396558168
% abcbook-src-url https://tunebook.net/scrape/tunes.abc
% abcbook-soundfonts 
% abcbook-repeats 1
%%gchordfont "itim-music,Itim" 20

